Numix-Light/16/status/indicator-keyboard-Fa-4.svg

<?xml version="1.0" encoding="UTF-8" standalone="no"?>
<svg
   xmlns:dc="http://purl.org/dc/elements/1.1/"
   xmlns:cc="http://creativecommons.org/ns#"
   xmlns:rdf="http://www.w3.org/1999/02/22-rdf-syntax-ns#"
   xmlns:svg="http://www.w3.org/2000/svg"
   xmlns="http://www.w3.org/2000/svg"
   xmlns:sodipodi="http://sodipodi.sourceforge.net/DTD/sodipodi-0.dtd"
   xmlns:inkscape="http://www.inkscape.org/namespaces/inkscape"
   viewBox="0 0 16 16"
   id="svg2"
   version="1.1"
   inkscape:version="0.91 r13725"
   sodipodi:docname="indicator-keyboard-Fa-4.svg">
  <metadata
     id="metadata14">
    <rdf:RDF>
      <cc:Work
         rdf:about="">
        <dc:format>image/svg+xml</dc:format>
        <dc:type
           rdf:resource="http://purl.org/dc/dcmitype/StillImage" />
      </cc:Work>
    </rdf:RDF>
  </metadata>
  <defs
     id="defs12" />
  <sodipodi:namedview
     pagecolor="#ffffff"
     bordercolor="#666666"
     borderopacity="1"
     objecttolerance="10"
     gridtolerance="10"
     guidetolerance="10"
     inkscape:pageopacity="0"
     inkscape:pageshadow="2"
     inkscape:window-width="640"
     inkscape:window-height="480"
     id="namedview10"
     showgrid="false"
     inkscape:zoom="14.75"
     inkscape:cx="8"
     inkscape:cy="8"
     inkscape:window-x="65"
     inkscape:window-y="24"
     inkscape:window-maximized="0"
     inkscape:current-layer="svg2" />
  <path
     style="fill:#353535;fill-opacity:1"
     d="M 1.5996094 0 C 0.71320937 2.9605947e-16 0 0.71320937 0 1.5996094 L 0 14.400391 C 2.9605947e-16 15.286791 0.71320937 16 1.5996094 16 L 14.400391 16 C 15.286791 16 16 15.286791 16 14.400391 L 16 1.5996094 C 16 0.71320937 15.286791 0 14.400391 0 L 1.5996094 0 z M 2.4453125 4.859375 L 6 4.859375 L 6 5.390625 L 3.0566406 5.390625 L 3.0566406 7.5859375 L 5.6679688 7.5859375 L 5.6679688 8.1171875 L 3.0566406 8.1171875 L 3.0566406 11.095703 L 2.4453125 11.095703 L 2.4453125 4.859375 z M 8.1464844 6.3359375 C 8.4524844 6.3359375 8.7099219 6.3807031 8.9199219 6.4707031 C 9.1359219 6.5547031 9.3113594 6.6740781 9.4433594 6.8300781 C 9.5753594 6.9800781 9.6704687 7.1591406 9.7304688 7.3691406 C 9.7904688 7.5791406 9.8203125 7.8086875 9.8203125 8.0546875 L 9.8203125 10.988281 C 9.7603125 11.006281 9.6745469 11.026781 9.5605469 11.050781 C 9.4465469 11.068781 9.3140625 11.089281 9.1640625 11.113281 C 9.0140625 11.137281 8.8461563 11.155969 8.6601562 11.167969 C 8.4801563 11.185969 8.2935625 11.195313 8.1015625 11.195312 C 7.8555625 11.195312 7.6279687 11.167281 7.4179688 11.113281 C 7.2139688 11.059281 7.0329531 10.975328 6.8769531 10.861328 C 6.7269531 10.741328 6.6075781 10.592109 6.5175781 10.412109 C 6.4335781 10.226109 6.3925781 10.000328 6.3925781 9.7363281 C 6.3925781 9.4843281 6.4391562 9.2698437 6.5351562 9.0898438 C 6.6311562 8.9098438 6.7674062 8.7624375 6.9414062 8.6484375 C 7.1154062 8.5284375 7.3225 8.4407187 7.5625 8.3867188 C 7.8025 8.3327188 8.06175 8.3066406 8.34375 8.3066406 C 8.42775 8.3066406 8.5154688 8.3122187 8.6054688 8.3242188 C 8.7014687 8.3302187 8.791 8.341375 8.875 8.359375 C 8.965 8.371375 9.0415625 8.3862969 9.1015625 8.4042969 C 9.1675625 8.4162969 9.2123281 8.4294063 9.2363281 8.4414062 L 9.2363281 8.1523438 C 9.2363281 7.9903438 9.2232187 7.8355469 9.1992188 7.6855469 C 9.1752188 7.5295469 9.1211094 7.3914844 9.0371094 7.2714844 C 8.9591094 7.1454844 8.8453125 7.0466094 8.6953125 6.9746094 C 8.5513125 6.8966094 8.3591406 6.8574219 8.1191406 6.8574219 C 7.7771406 6.8574219 7.5234688 6.8816875 7.3554688 6.9296875 C 7.1874687 6.9776875 7.0643281 7.016875 6.9863281 7.046875 L 6.9042969 6.5332031 C 7.0062969 6.4852031 7.1630469 6.4404375 7.3730469 6.3984375 C 7.5890469 6.3564375 7.8464844 6.3359375 8.1464844 6.3359375 z M 8.3261719 8.8105469 C 8.1821719 8.8105469 8.0329531 8.8217031 7.8769531 8.8457031 C 7.7209531 8.8637031 7.5773125 8.9084687 7.4453125 8.9804688 C 7.3133125 9.0464688 7.2050938 9.1397656 7.1210938 9.2597656 C 7.0370938 9.3797656 6.9941406 9.5383281 6.9941406 9.7363281 C 6.9941406 9.9103281 7.0221719 10.057734 7.0761719 10.177734 C 7.1361719 10.297734 7.2163594 10.394797 7.3183594 10.466797 C 7.4263594 10.538797 7.5532656 10.592906 7.6972656 10.628906 C 7.8472656 10.658906 8.0151719 10.673828 8.2011719 10.673828 C 8.4291719 10.673828 8.6269219 10.666297 8.7949219 10.654297 C 8.9689219 10.636297 9.1163281 10.615797 9.2363281 10.591797 L 9.2363281 8.953125 C 9.1703281 8.923125 9.0639219 8.8932813 8.9199219 8.8632812 C 8.7759219 8.8272812 8.5781719 8.8105469 8.3261719 8.8105469 z M 12.654297 8.8417969 L 13.050781 8.8417969 L 13.050781 11.486328 L 13.554688 11.486328 L 13.554688 11.796875 L 13.050781 11.796875 L 13.050781 12.896484 L 12.677734 12.896484 L 12.677734 11.796875 L 10.839844 11.796875 L 10.839844 11.5625 C 10.910044 11.3753 11.008012 11.163688 11.132812 10.929688 C 11.261513 10.695687 11.406506 10.456638 11.566406 10.210938 C 11.726306 9.9652374 11.898738 9.7261874 12.085938 9.4921875 C 12.273137 9.2542875 12.463197 9.0367969 12.654297 8.8417969 z M 12.677734 9.2695312 C 12.541234 9.4099312 12.402119 9.5706063 12.261719 9.7539062 C 12.121319 9.9372063 11.986122 10.129225 11.857422 10.328125 C 11.732623 10.523125 11.617012 10.719069 11.507812 10.917969 C 11.398613 11.116869 11.306522 11.306928 11.232422 11.486328 L 12.677734 11.486328 L 12.677734 9.2695312 z "
     id="path4" />
</svg>

<svg xmlns="http://www.w3.org/2000/svg" viewBox="0 0 16 16">
 <path d="m 1.6 0 c -0.886 0 -1.6 0.713 -1.6 1.6 l 0 12.801 c 0 0.886 0.713 1.6 1.6 1.6 l 12.801 0 c 0.886 0 1.6 -0.713 1.6 -1.6 l 0 -12.801 c 0 -0.886 -0.713 -1.6 -1.6 -1.6 l -12.801 0 z m 0.846 4.859 l 3.555 0 l 0 0.531 l -2.943 0 l 0 2.195 l 2.611 0 l 0 0.531 l -2.611 0 l 0 2.979 l -0.611 0 l 0 -6.236 z m 5.701 1.477 c 0.306 0 0.563 0.045 0.773 0.135 c 0.216 0.084 0.391 0.203 0.523 0.359 c 0.132 0.15 0.227 0.329 0.287 0.539 c 0.06 0.21 0.09 0.44 0.09 0.686 l 0 2.934 c -0.06 0.018 -0.146 0.038 -0.26 0.063 c -0.114 0.018 -0.246 0.038 -0.396 0.063 c -0.15 0.024 -0.318 0.043 -0.504 0.055 c -0.18 0.018 -0.367 0.027 -0.559 0.027 c -0.246 0 -0.474 -0.028 -0.684 -0.082 c -0.204 -0.054 -0.385 -0.138 -0.541 -0.252 c -0.15 -0.12 -0.269 -0.269 -0.359 -0.449 c -0.084 -0.186 -0.125 -0.412 -0.125 -0.676 c 0 -0.252 0.047 -0.466 0.143 -0.646 c 0.096 -0.18 0.232 -0.327 0.406 -0.441 c 0.174 -0.12 0.381 -0.208 0.621 -0.262 c 0.24 -0.054 0.499 -0.08 0.781 -0.08 c 0.084 0 0.172 0.006 0.262 0.018 c 0.096 0.006 0.186 0.017 0.27 0.035 c 0.09 0.012 0.167 0.027 0.227 0.045 c 0.066 0.012 0.111 0.025 0.135 0.037 l 0 -0.289 c 0 -0.162 -0.013 -0.317 -0.037 -0.467 c -0.024 -0.156 -0.078 -0.294 -0.162 -0.414 c -0.078 -0.126 -0.192 -0.225 -0.342 -0.297 c -0.144 -0.078 -0.336 -0.117 -0.576 -0.117 c -0.342 0 -0.596 0.024 -0.764 0.072 c -0.168 0.048 -0.291 0.087 -0.369 0.117 l -0.082 -0.514 c 0.102 -0.048 0.259 -0.093 0.469 -0.135 c 0.216 -0.042 0.473 -0.063 0.773 -0.063 z m 0.18 2.475 c -0.144 0 -0.293 0.011 -0.449 0.035 c -0.156 0.018 -0.3 0.063 -0.432 0.135 c -0.132 0.066 -0.24 0.159 -0.324 0.279 c -0.084 0.12 -0.127 0.279 -0.127 0.477 c 0 0.174 0.028 0.321 0.082 0.441 c 0.06 0.12 0.14 0.217 0.242 0.289 c 0.108 0.072 0.235 0.126 0.379 0.162 c 0.15 0.03 0.318 0.045 0.504 0.045 c 0.228 0 0.426 -0.008 0.594 -0.02 c 0.174 -0.018 0.321 -0.038 0.441 -0.063 l 0 -1.639 c -0.066 -0.03 -0.172 -0.06 -0.316 -0.09 c -0.144 -0.036 -0.342 -0.053 -0.594 -0.053 z m 4.328 0.031 l 0.396 0 l 0 2.645 l 0.504 0 l 0 0.311 l -0.504 0 l 0 1.1 l -0.373 0 l 0 -1.1 l -1.838 0 l 0 -0.234 c 0.07 -0.187 0.168 -0.399 0.293 -0.633 c 0.129 -0.234 0.274 -0.473 0.434 -0.719 c 0.16 -0.246 0.332 -0.485 0.52 -0.719 c 0.187 -0.238 0.377 -0.455 0.568 -0.65 z m 0.023 0.428 c -0.136 0.14 -0.276 0.301 -0.416 0.484 c -0.14 0.183 -0.276 0.375 -0.404 0.574 c -0.125 0.195 -0.24 0.391 -0.35 0.59 c -0.109 0.199 -0.201 0.389 -0.275 0.568 l 1.445 0 l 0 -2.217 z" style="fill:#353535;fill-opacity:1"/>
</svg>
